X: 1
T:Home Stretch, The
R:double jig
C:Tony Upton, 3/21/98
M:6/8
L:1/8
Q:3/8=150
K:Em
DB,B, GB,B,|DB,B, GB,B,|FDD A,DD|FDD A,DD|!
DB,B, GB,B,|DB,B, GB,B,|FED A,B,D|EFG E3:|!
GEE BEE|GEE BEE|ADD FDD|ADD FDD|!
GEE BEE|GEE GFE|FED A,B,D|EFG E3:|!
% Output from ABC2Win  Version 2.1 h on 13/02/2002
